X:421
T: SCHOEN IST SO WEIT UND BREIT DIE WELT
N: E1612
O: Europa, Mitteleuropa, Deutschland, Helgoland
R: Staende -, Handwerker -, Gesellen - Lied, Wanderschaft
M: 3/4
L: 1/16
K: G
D2G2A2 | B6cBA2G2 | F2G2A2
D2c2c2 | c2e2d4c4 | c4B2
D2G2A2 | B6cBA2G2 | F2G2A2
d2d2g2 | e2c2A6F2 | F4G4z2
d2 | g2G2G2 | ABc4
f2F2F2 | GBd4
g2G2G2 | ABc2z
A | fed2d2 | G4z2

@@@ Tune index: 5105
